X:74
T:Milk Maid. JJo.074, The
B:J.Johnson Choice Collection Vol 8 1758
Z:vmp.Simon Wilson 2013 www.village-music-project.org.uk
Z:Dance added by John Chambers 2017
M:C|
L:1/8
%Q:1/2=80
K:D
|:\
f>g a>f f2e2 | d>c d>e d2A2 |\
B2(Bc/d/)c2(cd/e/) | d4D4 :|
|:\
e>c BA e>c BA | a>f ed a>f ed |\
B2(Bc/d/)c2(cd/e/) | d4D4 :|
%%begintext align
%% Foot it across and turn .||. 1st
%% and 2d and 3d Cu. quite round
%% while you come into your Places
%% again .||. Right and Left
%% into the 2d Cu. Place :||:
%%endtext
